svgs/light/transporter-2.svg

<svg xmlns="http://www.w3.org/2000/svg" viewBox="0 0 512 512"><!--! Font Awesome Pro 6.6.0 by @fontawesome - https://fontawesome.com License - https://fontawesome.com/license (Commercial License) Copyright 2024 Fonticons, Inc. --><path d="M64 16l0 16 16 0c8.8 0 16 7.2 16 16s-7.2 16-16 16L64 64l0 16c0 8.8-7.2 16-16 16s-16-7.2-16-16l0-16L16 64C7.2 64 0 56.8 0 48s7.2-16 16-16l16 0 0-16C32 7.2 39.2 0 48 0s16 7.2 16 16zM480 336l0 16 16 0c8.8 0 16 7.2 16 16s-7.2 16-16 16l-16 0 0 16c0 8.8-7.2 16-16 16s-16-7.2-16-16l0-16-16 0c-8.8 0-16-7.2-16-16s7.2-16 16-16l16 0 0-16c0-8.8 7.2-16 16-16s16 7.2 16 16zM256 80a24 24 0 1 0 0-48 24 24 0 1 0 0 48zm0-80a56 56 0 1 1 0 112A56 56 0 1 1 256 0zM144 480c-8.8 0-16 7.2-16 16s-7.2 16-16 16s-16-7.2-16-16c0-26.5 21.5-48 48-48l224 0c26.5 0 48 21.5 48 48c0 8.8-7.2 16-16 16s-16-7.2-16-16s-7.2-16-16-16l-224 0zM383.7 224l-40.2 0-22-29c-.5-.7-1-1.3-1.5-1.9l0 30.9-32 0 0-47.8c-1.6-.2-3.1-.2-4.7-.2l-54.6 0c-1.6 0-3.2 .1-4.7 .2l0 47.8-32 0 0-30.9c-.5 .6-1 1.3-1.5 1.9l-22 29-40.2 0L165 175.7c15.1-19.9 38.7-31.7 63.7-31.7l54.6 0c25 0 48.6 11.7 63.7 31.7L383.7 224zM96 272c0-8.8 7.2-16 16-16l288 0c8.8 0 16 7.1 16 15.9c0 0 0 0 0 .1s0 0 0 .1c0 8.8-7.2 15.9-16 15.9l-288 0c-8.8 0-16-7.2-16-16zm64 64c0-8.8 7.2-16 16-16l160 0c8.8 0 16 7.2 16 16s-7.2 16-16 16l-160 0c-8.8 0-16-7.2-16-16zm0 64c0-8.8 7.2-16 16-16l160 0c8.8 0 16 7.2 16 16s-7.2 16-16 16l-160 0c-8.8 0-16-7.2-16-16z"/></svg>

<svg xmlns="http://www.w3.org/2000/svg" viewBox="0 0 512 512"><!--! Font Awesome Pro 6.4.0 by @fontawesome - https://fontawesome.com License - https://fontawesome.com/license (Commercial License) Copyright 2023 Fonticons, Inc. --><path d="M64 16V32H80c8.8 0 16 7.2 16 16s-7.2 16-16 16H64V80c0 8.8-7.2 16-16 16s-16-7.2-16-16V64H16C7.2 64 0 56.8 0 48s7.2-16 16-16H32V16C32 7.2 39.2 0 48 0s16 7.2 16 16zM480 336v16h16c8.8 0 16 7.2 16 16s-7.2 16-16 16H480v16c0 8.8-7.2 16-16 16s-16-7.2-16-16V384H432c-8.8 0-16-7.2-16-16s7.2-16 16-16h16V336c0-8.8 7.2-16 16-16s16 7.2 16 16zM256 80a24 24 0 1 0 0-48 24 24 0 1 0 0 48zm0-80a56 56 0 1 1 0 112A56 56 0 1 1 256 0zM144 480c-8.8 0-16 7.2-16 16s-7.2 16-16 16s-16-7.2-16-16c0-26.5 21.5-48 48-48H368c26.5 0 48 21.5 48 48c0 8.8-7.2 16-16 16s-16-7.2-16-16s-7.2-16-16-16H144zM383.7 224H343.5l-22-29c-.5-.7-1-1.3-1.5-1.9V224H288V176.2c-1.6-.2-3.1-.2-4.7-.2H228.7c-1.6 0-3.2 .1-4.7 .2V224H192V193.1c-.5 .6-1 1.3-1.5 1.9l-22 29H128.3L165 175.7c15.1-19.9 38.7-31.7 63.7-31.7h54.6c25 0 48.6 11.7 63.7 31.7L383.7 224zM96 272c0-8.8 7.2-16 16-16H400c8.8 0 16 7.1 16 15.9l0 .1 0 .1c0 8.8-7.2 15.9-16 15.9H112c-8.8 0-16-7.2-16-16zm64 64c0-8.8 7.2-16 16-16H336c8.8 0 16 7.2 16 16s-7.2 16-16 16H176c-8.8 0-16-7.2-16-16zm0 64c0-8.8 7.2-16 16-16H336c8.8 0 16 7.2 16 16s-7.2 16-16 16H176c-8.8 0-16-7.2-16-16z"/></svg>
